X:78
T: Nachtigall ich hr dich singen (Band 1), S. 220
N: P0853
O: Lothringen
S: PINCK, Louis: Verklingende Weisen, Bd 1, Metz 1928]
R: Liebesleid]
M: 3/4
L: 1/16
K: F
C2D2E2 | F6A2G2F2 | G2F2z4
E2F2 | G4B4A2c2 | B2A2z4
c3B | A2c2f4d2c2 | G4z4
C2E2 | G4B2d2c2c2
F4G4A4 | F2d2c4A4 | B2G2F4

